X: 1000
T: Missa – Benedictus
C: Anonim
L: 1/4
M: C
N: Derived from pl-kk--kk-i-58--004_anonim--missa-benedictus.krn
%%staves [1 2 3 4]
V: 1
V: 2 clef=alto
V: 3 clef=tenor
V: 4 clef=bass
K: F
[V:1] A4G4 [|] 
[V:2] F4D4 [|] 
[V:3] C4=B,4 [|] 
[V:4] F,4G,2F,2 [|] 
[V:1] G2G2G4 | 
[V:2] E4!breath!E2E2 | 
[V:3] C4C2C2 | 
[V:4] E,4C,2C,2 | 
[V:1] A4A2A2 [|] 
[V:2] F4F2F2 [|] 
[V:3] C4C2C2 [|] 
[V:4] F,4F,2F,2 [|] 
[V:1] A2AA2<G2G [|] 
[V:2] F2FF2<D2D | 
[V:3] C2CC2<=B,2B, | 
[V:4] D,2D,D,2<G,2G, [|] 
[V:1] G4G2G2 [|] 
[V:2] !breath!D4E4- [|] 
[V:3] !breath!B,4C4 [|] 
[V:4] G,2F,2E,2E,2 [|] 
[V:1] G2GGG4 [|] 
[V:2] E2D2E4 [|] 
[V:3] C2=B,2C4 [|] 
[V:4] E,2G,2E,4 [|] 
[V:1] G2G2G3G [|] 
[V:2] E4E4 [|] 
[V:3] C2C2C2CC | 
[V:4] C,4E,2C,2 [|] 
[V:1] G4G3G [|] 
[V:2] D2E2D4 [|] 
[V:3] =B,2CC2<C2=B, [|] 
[V:4] G,2C,2G,2G,2 [|] 
[V:1] G4c3c [|] 
[V:2] E4z4 | 
[V:3] C4z8 [|] 
[V:4] C,4z8 [|] 
[V:1] =B2BBc2c2 | 
[V:2] G2>F2E2EE [|] 
[V:3] C3C [|] 
[V:4] z4 [|] 
[V:1] z2G2G2GG | 
[V:2] D2D2z2E2 [|] 
[V:3] =B,2B,B,C2C2 | 
[V:4] G,2>F,2E,2E,E, [|] 
[V:1] G2>G2G2GG [|] 
[V:2] E2EE2<E2E | 
[V:3] z2C2C2CC | 
[V:4] C,2C,2z2C,2 [|] 
[V:1] A2A2z2A2 [|] 
[V:2] F2FFF4 | 
[V:3] C2>C2D4 | 
[V:4] F,2F,F,2<D,2D, [|] 
[V:1] F4B4 | 
[V:2] z2F2F3F [|] 
[V:3] z2D2D2D2 | 
[V:4] D,2D,2B,,3B,, [|] 
[V:1] z2B2A3A [|] 
[V:2] E4z2F2 [|] 
[V:3] z2C2CCC2 | 
[V:4] C,4F,3F, | 
[V:1] A2G2F3G/F/ [|] 
[V:2] F2>E2D4 | 
[V:3] D2C2B,3B, [|] 
[V:4] B,,4B,,4 [|] 
[V:1] E2F4E2 [|] 
[V:2] C4C3C [|] 
[V:3] !breath!G,2A,2G,3G, [|] 
[V:4] C,2F,2C,3C, [|] 
[V:1] F4z8 [|] 
[V:2] C4z8 [|] 
[V:3] A,4z4 [|] 
[V:4] F,4z2F,2 [|] 
[V:1] z4 [|] 
[V:2] z2F2 [|] 
[V:3] z2C2CB,A,G, [|] 
[V:4] F,E,D,C,D,2D,2 [|] 
[V:1] z2c2cBAG | 
[V:2] FEDCD2D2 [|] 
[V:3] A,2A,2z2B,2 [|] 
[V:4] F,2>F,2G,4 [|] 
[V:1] A2A2A2GG [|] 
[V:2] F2>F2F2D2 | 
[V:3] C2>C2C2B,2 | 
[V:4] F,2>E,2D,2G,2 [|] 
[V:1] G2A2G3G [|] 
[V:2] E2F4E2 [|] 
[V:3] B,2A,B,2<C2!fermata!C [|] 
[V:4] C,2F,2C,3C, [|] 
[V:1] !fermata!A16 |]  
[V:2] !fermata!F16 |]  
[V:3] !fermata!C16 |]  
[V:4] !fermata!F,16 |]  

